X:1
T:Title
%%score { ( 1 3 ) | 2 }
L:1/8
M:4/4
K:G
V:1 treble nm="Grand Piano"
V:3 treble 
V:2 bass 
V:1
 z4 z2[Q:1/4=112] D2 | B2 B2 d2 G2 | G2 F4 G2 | z4 z2 _B2 |[M:3/4] B6 |[M:1/4] D2 | %6
[M:4/4] B2 B2 d2 G2 | G2 F2 F2 [FA]2 | B2 A2 B2 [G^c]2 |[M:3/4] [Fd]6 |[M:1/4] D2 | %11
[M:4/4] d2 d>d d2 G2 | G2 F4 D2 | [Fc]2 [Fc]>[Fc] [DFc]2 D2 |[M:3/4] B6 |[M:1/4] B2 | %16
[M:4/4] d2 B>A G2 [^DF]2 | [EA]2 [EG]4 E2 | DD c2 B2 A2 |[M:3/4] [B,DG]6 |] %20
V:2
 z4 z2 [G,B,]2 | [G,D]2 [G,D]2 [G,B,D]2 [G,B,D]2 | [D,B,D]2 [D,A,D]4 [D,B,D]2 | %3
 [D,CD]2 [D,B,D]2 [D,CD]2 .[D,^CE]2 |[M:3/4][K:treble] [G,DG]6 |[M:1/4] [G,B,]2 | %6
[M:4/4] [G,D]2 [G,D]2 [G,B,D]2[K:bass] [G,B,D]2 | [D,B,D]2 [D,A,D]2 [D,A,D]2 [D,D]2 | %8
 [G,DG]2 [F,D]2 [G,DG]2[K:bass] [E,A,]2 |[M:3/4] [D,A,]6 |[M:1/4] [F,C]2 | %11
[M:4/4] [G,B,D]2 [G,B,D]>[G,B,D] [G,B,D]2 [G,B,D]2 | [D,B,D]2 [D,A,D]4 [D,F,]2 | %13
 [D,A,]2 [D,A,]>[D,A,] D,2 F,2 |[M:3/4][K:treble] [G,DG]6 |[M:1/4] [G,DG]2 | %16
[M:4/4] [G,B,G]2 [G,DG]>[G,CD][K:bass] [G,B,D]2 [B,,A,]2 | [C,G,]2 [C,C]4 [C,G,C]2 | %18
 [D,F,C][D,F,C] [D,A,D]2 [D,G,D]2 [D,CD]2 |[M:3/4] G,,6 |] %20
V:3
 x8 | x8 | x8 | A2 ^G2 A2 z G |[M:3/4] x6 |[M:1/4] x2 |[M:4/4] x8 | x8 | x8 |[M:3/4] x6 | %10
[M:1/4] x2 |[M:4/4] x8 | x8 | x8 |[M:3/4] x6 |[M:1/4] x2 |[M:4/4] x8 | x8 | x8 |[M:3/4] x6 |] %20

